X: 4060
T: WILLIE WAS A WANTON WAG.
R: Strathspey
%R: strathspey
B: James Kerr "Merry Melodies" v.4 p.09 #60
Z: 2016 John Chambers <jc:trillian.mit.edu>
M: C
L: 1/8
K: D
uA |\
F<A A>B d>ed>A | F<A A>f e>dB>A |\
F<A A>B d>ef>g | a<A A>f e>d d :|
|: g |\
f<a e>f d>e f<d | f<a e>f e>dB>g |\
f<a d>f d>ef>g | a<A A>f e>d d :|

%%sep 1 1 500
%%sep 1 1 500

